src/Editor/css/icons/graphics3D/ellipsoid.svg

<svg xmlns="http://www.w3.org/2000/svg" width="45" height="45"><path fill="none" stroke="#000" stroke-width="1.5" d="M39.37 5.632a13.84 23.86 45 0 1-7.082 26.65 13.84 23.86 45 0 1-26.65 7.082 13.84 23.86 45 0 1 7.082-26.65 13.84 23.86 45 0 1 26.65-7.082z"/><path fill="none" stroke="#000" stroke-width="1.5" d="M5.133 38.67C16.153 27.1 26.983 16 39.323 5.75M3.383 35.47c3.18-10.51 28.7-30.31 36.64-29.12m-36.59 22.3c4.8-12.63 29.78-27.4 37.28-21.31m-29.19 6.717c10.04-9.313 26.81-13.88 30.36-3.222m-33.95 30.08c6.783-1.556 30.4-28.38 30.86-35.83m-26.4 36.91c7.88-.044 30.92-26.54 25.45-37.6m-14.46 34.53c6.779-3.686 23.82-25.86 12.98-35.19m3.062 18.79c4.967-12.8-1.404-20.03-9.034-19.38m5.303 25.18a13.84 10.2 45 0 1-15.09-4.073 13.84 10.2 45 0 1-3.86-15.08m23.8 10.76a10.99 7.328 45 0 1-12.41-3.02 10.99 7.328 45 0 1-3.095-12.42m16.8 6.515a5.855 3.614 45 0 1-4.341 1.415 5.855 3.614 45 0 1-4.9-4.872 5.855 3.614 45 0 1 1.365-4.375m-12.88 36.9a11.64 7.328 45 0 1-11.76-3.427 11.64 7.328 45 0 1-4.727-11.9m24.18 10.64a14.13 10.2 45 0 1-14.77-4.488 14.13 10.2 45 0 1-4.329-14.76"/></svg>

<svg xmlns="http://www.w3.org/2000/svg" width="45" height="45"><g fill="none" stroke="#000" stroke-linecap="round" stroke-miterlimit="10" stroke-width="1.5"><ellipse cy="31.82" stroke-linejoin="round" color="#000" rx="23.855" ry="13.84" style="isolation:auto;mix-blend-mode:normal" transform="rotate(-45)"/><path stroke-linejoin="round" d="M35.693 28.324a13.84 10.205 45 0 1-15.087-4.073 13.84 10.205 45 0 1-3.86-15.079m23.8 10.762a10.994 7.328 45 0 1-12.412-3.02A10.994 7.328 45 0 1 25.039 4.49m16.798 6.515a5.855 3.614 45 0 1-4.341 1.415 5.855 3.614 45 0 1-4.9-4.872 5.855 3.614 45 0 1 1.365-4.375M21.076 40.072a11.64 7.328 45 0 1-11.765-3.427 11.64 7.328 45 0 1-4.727-11.899M28.76 35.384a14.133 10.205 45 0 1-14.768-4.488 14.133 10.205 45 0 1-4.329-14.765" color="#000" style="isolation:auto;mix-blend-mode:normal"/><path d="M5.133 38.67C16.15 27.098 26.98 16.001 39.323 5.755M3.386 35.475C6.566 24.964 32.087 5.163 40.023 6.352M3.431 28.648c4.8-12.63 29.779-27.395 37.28-21.308m-29.194 6.717C21.554 4.744 38.326.177 41.881 10.835M7.93 40.916c6.783-1.556 30.397-28.378 30.864-35.83M12.395 41.998c7.88-.044 30.919-26.54 25.448-37.602M23.38 38.928c6.779-3.686 23.816-25.855 12.982-35.194m3.062 18.794C44.391 9.724 38.02 2.502 30.39 3.145" color-interpolation="auto"/></g></svg>
